X:95
T:Miss Burchell's Humour
M:2/4
L:1/8
B:Thompson's Compleat Collection of 200 Favourite Country Dances, vol. 1 (London, 1757)
Z:Transcribed and edited by Fynnian Titford-Mock, 2007
Z:abc's:AK/Fiddler's Companion
K:A
e3f|(ec) (BA)|(GA) (Bc)|{c}"tr"B4|e3 f|(ec) (BA)|E2 A2|A4::.e(cBA)|.e(cBA)|(cd)(ef)|"tr"e3 a|
.e(cBA)|.e(cBA)|(GA)(Bc)|{c}"tr"B4|.e(cBA)|.e(cBA)|(cd)(ef)|e3 a|"tr"e3 f|(ec)(BA)|E2 A2|A4:|

